icons/fill-ele-tool-edit-gear-setting-1.svg

<svg xmlns="http://www.w3.org/2000/svg" width="32px" height="32px" viewBox="0 0 32 32" version="1.1">
    <title>fill-ele-tool-edit-gear-setting-1</title>
    <g id="fill-ele-tool-edit-gear-setting-1" stroke-width="1" fill-rule="evenodd">
        <path d="M21.2679492,2.87564435 L24.7320508,4.87564435 C25.2103434,5.15178672 25.3742186,5.76337713 25.0980762,6.24166975 L23.8897456,8.33500999 C25.1429384,9.62471692 26.0826482,11.2206608 26.5858962,12.9998627 L29,13 C29.5522847,13 30,13.4477153 30,14 L30,18 C30,18.5522847 29.5522847,19 29,19 L26.5858962,19.0001373 C26.0826482,20.7793392 25.1429384,22.3752831 23.8897456,23.66499 L25.0980762,25.7583302 C25.3742186,26.2366229 25.2103434,26.8482133 24.7320508,27.1243557 L21.2679492,29.1243557 C20.7896566,29.400498 20.1780662,29.2366229 19.9019238,28.7583302 L18.6949359,26.6674718 C17.8325866,26.884647 16.9297644,27 16,27 C15.0702356,27 14.1674134,26.884647 13.3050641,26.6674718 L12.0980762,28.7583302 C11.8219338,29.2366229 11.2103434,29.400498 10.7320508,29.1243557 L7.26794919,27.1243557 C6.78965657,26.8482133 6.62578141,26.2366229 6.90192379,25.7583302 L8.1102544,23.66499 C6.85706161,22.3752831 5.91735176,20.7793392 5.41410381,19.0001373 L3,19 C2.44771525,19 2,18.5522847 2,18 L2,14 C2,13.4477153 2.44771525,13 3,13 L5.41410381,12.9998627 C5.91735176,11.2206608 6.85706161,9.62471692 8.1102544,8.33500999 L6.90192379,6.24166975 C6.62578141,5.76337713 6.78965657,5.15178672 7.26794919,4.87564435 L10.7320508,2.87564435 C11.2103434,2.59950197 11.8219338,2.76337713 12.0980762,3.24166975 L13.3050641,5.33252823 C14.1674134,5.115353 15.0702356,5 16,5 C16.9297644,5 17.8325866,5.115353 18.6949359,5.33252823 L19.9019238,3.24166975 C20.1780662,2.76337713 20.7896566,2.59950197 21.2679492,2.87564435 Z M16,10 C12.6862915,10 10,12.6862915 10,16 C10,19.3137085 12.6862915,22 16,22 C19.3137085,22 22,19.3137085 22,16 C22,12.6862915 19.3137085,10 16,10 Z" id="&#24418;&#29366;" />
    </g>
</svg>

<svg xmlns="http://www.w3.org/2000/svg" viewBox="0 0 32 32"><path fill="currentColor" d="m21.268 2.876 3.464 2a1 1 0 0 1 .366 1.366L23.89 8.335A10.988 10.988 0 0 1 26.586 13H29a1 1 0 0 1 1 1v4a1 1 0 0 1-1 1h-2.414a10.988 10.988 0 0 1-2.696 4.665l1.208 2.093a1 1 0 0 1-.366 1.366l-3.464 2a1 1 0 0 1-1.366-.366l-1.207-2.09C17.833 26.884 16.93 27 16 27c-.93 0-1.833-.115-2.695-.333l-1.207 2.091a1 1 0 0 1-1.366.366l-3.464-2a1 1 0 0 1-.366-1.366l1.208-2.093A10.988 10.988 0 0 1 5.414 19H3a1 1 0 0 1-1-1v-4a1 1 0 0 1 1-1h2.414A10.988 10.988 0 0 1 8.11 8.335L6.902 6.242a1 1 0 0 1 .366-1.366l3.464-2a1 1 0 0 1 1.366.366l1.207 2.09A11.023 11.023 0 0 1 16 5c.93 0 1.833.115 2.695.333l1.207-2.091a1 1 0 0 1 1.366-.366M16 10a6 6 0 1 0 0 12 6 6 0 0 0 0-12"/></svg>
